X: 35963
T: Sarah's Fiddle
R: reel
M: 4/4
K: Gminor
|:F3B BcdB|cBdc Bcde|f3f ~g2bd|cedc BFGB|
FBBF BcdB|cBdc Bcde|f3f ~g2bd|1 cedc BFGB:|2 cedc Bcdf||
|:bB (3BBB B2ba|g3g g2fd|g2fd BcdB|cedc BFGB|
[1 bB (3BBB B2ba|g3g g2fd|c2df g2bd|cedc Bcdf:|
[2 FBBF BcdB|cBdc Bcde|f3f g2bd|cedc BFGB||

